app/img/top/crossed-ellipses.svg

<svg width="656" height="649" viewBox="0 0 656 649" fill="none" xmlns="http://www.w3.org/2000/svg">
<path d="M260.956 384.513C216.458 311.94 187.252 239.511 175.979 181.101C170.343 151.892 169.201 126.243 172.837 105.857C176.473 85.4687 184.862 70.462 198.181 62.312C211.5 54.1623 228.693 53.5161 248.525 59.5434C268.357 65.5704 290.71 78.2398 314.195 96.5272C361.16 133.097 412.478 191.996 456.975 264.569C501.473 337.142 530.678 409.571 541.951 467.981C547.587 497.19 548.729 522.839 545.093 543.226C541.457 563.614 533.069 578.62 519.75 586.77C506.431 594.92 489.238 595.567 469.405 589.539C449.573 583.512 427.22 570.843 403.735 552.555C356.77 515.985 305.453 457.086 260.956 384.513Z" stroke="#FFBD59" stroke-width="2"/>
<path d="M274.204 210.19C349.481 170.344 423.663 145.735 482.721 138.134C512.254 134.333 537.95 134.792 558.092 139.687C578.235 144.582 592.705 153.88 600.018 167.667C607.33 181.453 606.905 198.636 599.648 218.035C592.391 237.432 578.341 258.93 558.608 281.207C519.147 325.755 457.105 373.253 381.828 413.099C306.552 452.945 232.37 477.553 173.312 485.154C143.779 488.955 118.082 488.497 97.941 483.602C77.7981 478.707 63.3283 469.408 56.0157 455.621C48.7034 441.835 49.1278 424.653 56.3848 405.254C63.6414 385.857 77.692 364.358 97.4253 342.081C136.887 297.533 198.928 250.036 274.204 210.19Z" stroke="#BEA495" stroke-width="2"/>
</svg>

<svg xmlns="http://www.w3.org/2000/svg" width="656" height="649" fill="none">
  <path stroke="#FFBD59" stroke-width="3" d="M260.96 384.51c-44.5-72.57-73.7-145-84.98-203.4-5.64-29.22-6.78-54.87-3.14-75.25 3.63-20.4 12.02-35.4 25.34-43.55 13.32-8.15 30.51-8.8 50.34-2.77 19.84 6.03 42.19 18.7 65.67 36.99 46.97 36.57 98.29 95.47 142.79 168.04 44.5 72.57 73.7 145 84.97 203.41 5.64 29.21 6.78 54.86 3.14 75.25-3.63 20.38-12.02 35.39-25.34 43.54-13.32 8.15-30.51 8.8-50.35 2.77-19.83-6.03-42.18-18.7-65.66-36.99-46.97-36.56-98.29-95.46-142.78-168.04Z"/>
  <path stroke="#BEA495" stroke-width="3" d="M274.2 210.19c75.28-39.85 149.46-64.45 208.52-72.06 29.53-3.8 55.23-3.34 75.37 1.56 20.14 4.9 34.62 14.19 41.93 27.98 7.31 13.78 6.88 30.97-.37 50.37-7.26 19.4-21.3 40.89-41.04 63.17-39.46 44.55-101.5 92.04-176.78 131.89-75.28 39.84-149.46 64.45-208.52 72.05-29.53 3.8-55.23 3.35-75.37-1.55-20.14-4.9-34.61-14.2-41.92-27.98-7.32-13.79-6.9-30.97.36-50.37 7.26-19.4 21.31-40.9 41.05-63.17 39.46-44.55 101.5-92.04 176.77-131.89Z"/>
</svg>
